X:308
T:Finlay M. MacRay - March
C:Joe Buchanan's Scottish Tome - Page 610.1
I:610 1
Z:Carl Allison
R:March
L:1/8
M:6/8
K:C
B<d | "Am"e>dB A>AA | a>ge g2 a | "Em"e>dB G>GG | g>ed e<gd |
"Am"e>dB A>AA | a>ge g2 a | "Em"e>dd e<gG | "F"A3- "Am"A :|
e<g | "Am"a>eg a2 g | A>ag e>dd | "Em"e<ge d2 B | G>dA B>GG |
"Am"a>eg a2 g | A>ag e>dd | "Em"e<ge d>GB | "F"A3 "Am"A>eg |
"Am"aeg a2 g | A>ag e>dd | "Em"e>ae d2 B | G>dA B>GG |
"Am"A>AA e>dB | A>ae g2 a | "Em"e>dd e<gG | "F"A3- "Am"A |]
B<d | "Am"e3 d2 e | "Am"A>AA edB | "G"d B2 A>BA | G>ge d>BG |
"Am"e3 d2 e | "Am"A>AA a2 g | "Em"e<dd e>gG | "F"A3- "Am"A :|
e<g | "Am"a>Ag a>Ag | A<ag e>dd | "Em"e<ge d<AB | G>dA B>GG |
"Am"a>Ag a>Ag | A<ag e>dd | "Em"e<ge d<GB | "F"A3 "Am"A>eg |
"Am"a>Ag a>Ag | A<ag e>dd | "Em"e<ge d<GB | G>dA B>GG |
"Am"A>AA e>dB | A<ae g2 a | "Em"e>dd e<gG | "F"A3 "Am"A |]

